app/assets/images/payment_icons/alma.svg

<svg width="38" height="24" viewBox="0 0 38 24" role="img" aria-labelledby="pi-alma" fill="none" xmlns="http://www.w3.org/2000/svg"><title id="pi-alma">Alma</title><path fill="#000" opacity=".07" d="M35 0H3C1.3 0 0 1.3 0 3v18c0 1.7 1.4 3 3 3h32c1.7 0 3-1.3 3-3V3c0-1.7-1.4-3-3-3z"/><path fill="#fff" d="M35 1c1.1 0 2 .9 2 2v18c0 1.1-.9 2-2 2H3c-1.1 0-2-.9-2-2V3c0-1.1.9-2 2-2h32"/><path d="M34.0877 9.27963V10.3292C33.5231 9.56599 32.7034 9.08914 31.7301 9.08914C29.852 9.08914 28.3968 10.8596 28.3968 13.0446C28.3968 15.2296 29.852 17 31.7301 17C32.7719 17 33.6377 16.4547 34.2034 15.5956V16.8108H36V9.27963H34.0877ZM32.1966 15.1138C31.1525 15.1138 30.3068 14.1875 30.3068 13.0446C30.3068 11.9016 31.1525 10.9753 32.1966 10.9753C33.2408 10.9753 34.0865 11.9016 34.0865 13.0446C34.0865 14.1875 33.2408 15.1138 32.1966 15.1138ZM12.0648 7.18924H13.9759V16.8095H12.0648V7.18924ZM16.174 12.5416C16.174 10.4711 17.38 9.09039 19.0502 9.09039C20.0873 9.09039 20.907 9.57595 21.4007 10.4039C21.8956 9.57595 22.7142 9.09039 23.7513 9.09039C25.4214 9.09039 26.6274 10.4711 26.6274 12.5416V16.8108H24.7163V12.3237C24.7163 11.5157 24.2084 10.989 23.5363 10.989C22.8642 10.989 22.3563 11.5169 22.3563 12.3237V16.8108H20.4452V12.3237C20.4452 11.5157 19.9373 10.989 19.2652 10.989C18.5931 10.989 18.0852 11.5169 18.0852 12.3237V16.8108H16.174V12.5416ZM8.60393 9.35807C8.15154 7.57146 7.19479 7 6.28411 7C5.37342 7 4.41668 7.57146 3.96429 9.35807L2 16.812H3.93594C4.25131 15.567 5.22341 14.8735 6.28411 14.8735C7.3448 14.8735 8.3169 15.5682 8.63227 16.812H10.5694L8.60393 9.35807ZM6.28411 13.1367C5.66754 13.1367 5.10884 13.3832 4.69661 13.7829L5.80691 9.44522C5.91322 9.03063 6.07031 8.89866 6.28529 8.89866C6.50026 8.89866 6.65736 9.03063 6.76366 9.44522L7.87278 13.7829C7.46055 13.3832 6.90068 13.1367 6.28411 13.1367Z" fill="#FA5022"/></svg>

<svg xmlns="http://www.w3.org/2000/svg" width="38" height="24" fill="none" aria-labelledby="pi-alma" role="img" viewBox="0 0 38 24"><title id="pi-alma">Alma</title><path fill="#fff" d="M0 0h38v24H0z"/><path fill="#FA5022" d="M34.088 9.28v1.05c-.565-.764-1.385-1.24-2.358-1.24-1.878 0-3.333 1.77-3.333 3.955S29.852 17 31.73 17c1.042 0 1.908-.545 2.473-1.404v1.215H36V9.28zm-1.891 5.834c-1.045 0-1.89-.927-1.89-2.07s.846-2.069 1.89-2.069 1.89.927 1.89 2.07-.846 2.069-1.89 2.069M12.065 7.189h1.91v9.62h-1.91zm4.109 5.353c0-2.07 1.206-3.452 2.876-3.452 1.037 0 1.857.486 2.35 1.314.496-.828 1.314-1.314 2.351-1.314 1.67 0 2.876 1.381 2.876 3.452v4.269h-1.91v-4.487c0-.808-.509-1.335-1.18-1.335-.673 0-1.18.528-1.18 1.335v4.487h-1.912v-4.487c0-.808-.508-1.335-1.18-1.335s-1.18.528-1.18 1.335v4.487h-1.911zm-7.57-3.184C8.152 7.571 7.194 7 6.284 7s-1.867.571-2.32 2.358L2 16.812h1.936c.315-1.245 1.287-1.939 2.348-1.939s2.033.695 2.348 1.939h1.937zm-2.32 3.779c-.616 0-1.175.246-1.587.646l1.11-4.338c.106-.414.263-.546.478-.546s.372.132.479.546l1.109 4.338a2.28 2.28 0 0 0-1.589-.646"/></svg>
